icons/KoraCustom/apps/scalable/com.yuenhoe.filedrawer.svg

<svg xmlns="http://www.w3.org/2000/svg" width="48" height="48" version="1">
 <rect style="opacity:0.2" width="40" height="26" x="4" y="17" rx="2" ry="2"/>
 <path style="fill:#4877b1" d="M 4,34 C 4,35.108 4.892,36 6,36 H 42 C 43.108,36 44,35.108 44,34 V 12 C 44,10.892 43.108,10 42,10 H 24 C 21,10 20,6 17,6 H 6 C 4.892,6 4,6.892 4,8"/>
 <rect style="opacity:0.2" width="40" height="26" x="4" y="15" rx="2" ry="2"/>
 <rect style="fill:#e4e4e4" width="36" height="16" x="6" y="13" rx="2" ry="2"/>
 <rect style="fill:#5294e2" width="40" height="26" x="4" y="16" rx="2" ry="2"/>
 <path style="opacity:0.1;fill:#ffffff" d="M 6,6 C 4.892,6 4,6.892 4,8 V 9 C 4,7.892 4.892,7 6,7 H 17 C 20,7 21,11 24,11 H 42 C 43.108,11 44,11.892 44,13 V 12 C 44,10.892 43.108,10 42,10 H 24 C 21,10 20,6 17,6 Z"/>
 <circle style="opacity:0.2" cx="36" cy="36" r="11"/>
 <circle style="fill:#28ccb2" cx="36" cy="35" r="11"/>
 <path style="fill:#ffffff;fill-rule:evenodd" d="M 36,30 C 34.4492,30.0151 32.8879,30.36944 31.5371,31.135 30.99869,31.4857 30.3523,31.93866 29.8652,32.395 29.09871,33.14558 28.4427,34.0213 28,35.001 29.2149,37.6811 31.8859,39.6455 34.8242,39.9356 36.7516,40.15377 38.7686,39.82073 40.4629,38.867 41.00129,38.5163 41.6477,38.06334 42.1348,37.607 42.9008,36.856 43.5568,35.981 43.9998,35.001 42.7848,32.321 40.1138,30.356 37.1758,30.066 36.7858,30.021 36.3928,30 35.9998,30 Z M 36,32.0004 C 37.607,31.9648 39.0303,33.4025 39,35.0011 39.05149,36.7679 37.291,38.2927 35.5508,37.9627 33.7932,37.75633 32.5587,35.7845 33.1367,34.1142 33.50587,32.8846 34.7125,31.9852 36,32.0004 Z M 36,34.0008 A 1,1.0002 0 0 0 35,35.001 1,1.0002 0 0 0 36,36.0012 1,1.0002 0 0 0 36.99999,35.001 1,1.0002 0 0 0 35.99999,34.002 Z"/>
</svg>

<svg clip-rule="evenodd" fill-rule="evenodd" stroke-linejoin="round" stroke-miterlimit="2" viewBox="0 0 48 48" xmlns="http://www.w3.org/2000/svg">
 <linearGradient id="a" x2="1" gradientTransform="matrix(0 -41.6338 41.6338 0 897.879 52.7218)" gradientUnits="userSpaceOnUse">
  <stop stop-color="#1075f6" offset="0"/>
  <stop stop-color="#12c5ff" offset="1"/>
 </linearGradient>
 <path transform="scale(.75)" d="m61.122 15.88c0-2.762-2.239-5-5-5h-48.244c-2.761 0-5 2.238-5 5v32.246c0 2.761 2.239 5 5 5h48.244c2.761 0 5-2.239 5-5z" fill="#0083d5"/>
 <path transform="scale(.75)" d="m61.122 20.652c0-1.326-.527-2.598-1.465-3.536-.938-.937-2.209-1.464-3.535-1.464h-25.58c-1.232 0-2.42-.455-3.337-1.277-.768-.689-1.713-1.535-2.481-2.224-.917-.822-2.105-1.277-3.337-1.277h-13.509c-1.326 0-2.597.527-3.535 1.465-.938.937-1.465 2.209-1.465 3.535v32.252c0 2.761 2.239 5 5 5h48.244c2.761 0 5-2.239 5-5z" fill="url(#a)"/>
 <circle cx="37.265052" cy="34.53999" r="9.841502" fill="#28ccb2" stroke-width=".894682"/>
 <path transform="matrix(.894682 0 0 .894682 5.0565 3.22612)" d="m36 30c-1.551.015-3.112.369-4.463 1.135-.538.351-1.185.804-1.672 1.26-.766.751-1.422 1.626-1.865 2.606 1.215 2.68 3.886 4.645 6.824 4.935 1.928.218 3.945-.115 5.639-1.069.538-.351 1.185-.804 1.672-1.26.766-.751 1.422-1.626 1.865-2.606-1.215-2.68-3.886-4.645-6.824-4.935-.39-.045-.783-.066-1.176-.066zm0 2c1.607-.035 3.03 1.403 3 3.001.051 1.767-1.709 3.292-3.449 2.962-1.758-.207-2.992-2.178-2.414-3.849.369-1.229 1.576-2.129 2.863-2.114zm0 2.001c-.549 0-1 .451-1 1s.451 1 1 1 1-.451 1-1c-.001-.548-.452-.999-1-.999z" fill="#fff"/>
</svg>
